X: 3
T: Beer Barrel Polka
M: C|
Z: Transcribed to abc by Mary Lou Knack
K: Bb
F=E| &quot;Bb&quot;F2 D4 F=E| F2 D4 F=E| F2B2 c3B| &quot;F7&quot;B2 A4 A_A| \
         A2B2 c2B2| B2 A4 AB| A2 G4 GA| &quot;Bb&quot;G2 F4 F=E|
     &quot;Bb&quot;F2 D4 F=E| F2 D4 F=E| F2B2 c2B2| &quot;F7&quot;B2 A6| \
         c3c c3B| B2 A4 G2| F2_G2 =G2A2| &quot;Bb&quot;B2=E2 F2_G2|]
|:\
&quot;F7&quot;G4 _G2=G2| G2E2 D2C2| G8-| G2D2 E2=E2| \
&quot;Bb&quot;F4 =E2F2-| F2D2 C2B,2| F8-| F2B2 c2B2|
&quot;F7&quot;A6 c2| G6 F2| A8-| A2B2 c2B2| \
    A4 c4 |1 G4 ^F4| &quot;Bb&quot;F8-| F2=E2 F2_G2 :|2 &quot;F7&quot;G4 A4| &quot;Bb&quot;B8-| B2B2 c2d2|]
K:Eb
&quot;Eb&quot;e4 c4|B4 G4| E4 C4| B,4 G,4| B8| B6 =A2| B2 c6-| c8|
&quot;Eb&quot;B2 c4 B2| c2 B4 =A2| &quot;Bb7&quot;A8-| A8| c8| c6 =B2| c2 d6-| d8|
&quot;Bb7&quot;c2 d4 c2| d2 c4 =B2| &quot;Eb&quot;B8-| B2G2 A2=A2| B8| B6 =A2| B2 c6-| c8|
&quot;Eb7&quot;B2 c4 B2| c2 B4 E2| &quot;Ab&quot;c8-| &quot;C7&quot;c8| \
&quot;Gm&quot;F2G2 A2B2| &quot;Bb7&quot;d6 c2| &quot;Eb&quot;c2 B6-| B4 =A2B2|\
&quot;F7&quot;c8| &quot;Bb7&quot;d8| &quot;Eb&quot;e3c B2G2| E2 z4|]
